src/assets/svg/github.svg

<?xml version="1.0" encoding="UTF-8"?>
<svg width="20px" height="20px" viewBox="0 0 20 20" version="1.1" xmlns="http://www.w3.org/2000/svg" xmlns:xlink="http://www.w3.org/1999/xlink">
    <!-- Generator: Sketch 50.2 (55047) - http://www.bohemiancoding.com/sketch -->
    <title>github</title>
    <desc>Created with Sketch.</desc>
    <defs></defs>
    <g id="Page-1" stroke="none" stroke-width="1" fill="none" fill-rule="evenodd">
        <g id="Artboard" transform="translate(-487.000000, -846.000000)" fill="#000000" fill-rule="nonzero">
            <g id="github" transform="translate(487.000000, 846.000000)">
                <path d="M10,0 C11.8142361,0 13.4874132,0.458083167 15.0195312,1.3742495 C16.5516493,2.29041583 17.7647569,3.53346676 18.6588542,5.10340227 C19.5529514,6.67333778 20,8.3878141 20,10.2468312 C20,12.4794307 19.3641493,14.4874361 18.0924479,16.2708472 C16.8207465,18.0542584 15.1779514,19.2884145 13.1640625,19.9733155 C12.9296875,20.0177896 12.7560764,19.9866578 12.6432292,19.8799199 C12.5303819,19.7731821 12.4739583,19.6397598 12.4739583,19.4796531 C12.4739583,19.4529686 12.4761285,19.1127418 12.4804688,18.4589726 C12.484809,17.8052035 12.4869792,17.2070269 12.4869792,16.664443 C12.4869792,15.8016455 12.2612847,15.1701134 11.8098958,14.7698466 C12.3046875,14.7164777 12.749566,14.6364243 13.1445312,14.5296865 C13.5394965,14.4229486 13.9474826,14.2494997 14.3684896,14.0093396 C14.7894965,13.7691795 15.141059,13.4734267 15.4231771,13.1220814 C15.7052951,12.770736 15.9353299,12.3037581 16.1132812,11.7211474 C16.2912326,11.1385368 16.3802083,10.4692017 16.3802083,9.71314209 C16.3802083,8.65465866 16.0373264,7.73849233 15.3515625,6.9646431 C15.6727431,6.15521459 15.6380208,5.24794307 15.2473958,4.24282855 C15.0043403,4.16277518 14.6527778,4.21169669 14.1927083,4.38959306 C13.7326389,4.56748944 13.3333333,4.76317545 12.9947917,4.9766511 L12.5,5.29686458 C11.6927083,5.06559929 10.859375,4.94996664 10,4.94996664 C9.140625,4.94996664 8.30729167,5.06559929 7.5,5.29686458 C7.36111111,5.19902157 7.17664931,5.07894152 6.94661458,4.93662442 C6.71657986,4.79430732 6.35416667,4.62308205 5.859375,4.42294863 C5.36458333,4.22281521 4.99565972,4.16277518 4.75260417,4.24282855 C4.36197917,5.24794307 4.32725694,6.15521459 4.6484375,6.9646431 C3.96267361,7.73849233 3.61979167,8.65465866 3.61979167,9.71314209 C3.61979167,10.4692017 3.70876736,11.1363131 3.88671875,11.7144763 C4.06467014,12.2926395 4.29253472,12.7596175 4.5703125,13.1154103 C4.84809028,13.471203 5.19748264,13.7691795 5.61848958,14.0093396 C6.03949653,14.2494997 6.44748264,14.4229486 6.84244792,14.5296865 C7.23741319,14.6364243 7.68229167,14.7164777 8.17708333,14.7698466 C7.83854167,15.09006 7.62586806,15.5481432 7.5390625,16.1440961 C7.35677083,16.2330443 7.16145833,16.2997554 6.953125,16.3442295 C6.74479167,16.3887036 6.49739583,16.4109406 6.2109375,16.4109406 C5.92447917,16.4109406 5.64019097,16.3153213 5.35807292,16.1240827 C5.07595486,15.9328441 4.83506944,15.654881 4.63541667,15.2901935 C4.47048611,15.0055593 4.25998264,14.774294 4.00390625,14.5963976 C3.74782986,14.4185012 3.53298611,14.3117634 3.359375,14.2761841 L3.09895833,14.2361574 C2.91666667,14.2361574 2.79079861,14.2561708 2.72135417,14.2961975 C2.65190972,14.3362241 2.63020833,14.3873694 2.65625,14.4496331 C2.68229167,14.5118968 2.72135417,14.5741606 2.7734375,14.6364243 C2.82552083,14.698688 2.88194444,14.7520569 2.94270833,14.796531 L3.03385417,14.8632422 C3.22482639,14.9521903 3.41362847,15.1211919 3.60026042,15.3702468 C3.78689236,15.6193018 3.92361111,15.8461196 4.01041667,16.0507005 L4.140625,16.3575717 C4.25347222,16.6955748 4.44444444,16.9690905 4.71354167,17.1781187 C4.98263889,17.387147 5.2734375,17.5205693 5.5859375,17.5783856 C5.8984375,17.6362019 6.20008681,17.6673338 6.49088542,17.6717812 C6.78168403,17.6762286 7.02256944,17.6606627 7.21354167,17.6250834 L7.51302083,17.5717145 C7.51302083,17.9097176 7.51519097,18.3033133 7.51953125,18.7525017 C7.52387153,19.20169 7.52604167,19.4440738 7.52604167,19.4796531 C7.52604167,19.6397598 7.46961806,19.7731821 7.35677083,19.8799199 C7.24392361,19.9866578 7.0703125,20.0177896 6.8359375,19.9733155 C4.82204861,19.2884145 3.17925347,18.0542584 1.90755208,16.2708472 C0.635850694,14.4874361 0,12.4794307 0,10.2468312 C0,8.3878141 0.447048611,6.67333778 1.34114583,5.10340227 C2.23524306,3.53346676 3.44835069,2.29041583 4.98046875,1.3742495 C6.51258681,0.458083167 8.18576389,0 10,0 Z M3.7890625,14.7164777 C3.81510417,14.6542139 3.78472222,14.600845 3.69791667,14.5563709 C3.61111111,14.5296865 3.5546875,14.5385813 3.52864583,14.5830554 C3.50260417,14.6453191 3.53298611,14.698688 3.61979167,14.7431621 C3.69791667,14.796531 3.75434028,14.7876362 3.7890625,14.7164777 Z M4.19270833,15.1701134 C4.25347222,15.1256393 4.24479167,15.0544808 4.16666667,14.9566378 C4.07986111,14.8765844 4.01041667,14.8632422 3.95833333,14.9166111 C3.89756944,14.9610852 3.90625,15.0322437 3.984375,15.1300867 C4.07118056,15.2190349 4.140625,15.2323771 4.19270833,15.1701134 Z M4.58333333,15.7705137 C4.66145833,15.7082499 4.66145833,15.6237492 4.58333333,15.5170113 C4.51388889,15.4013787 4.44010417,15.3746942 4.36197917,15.436958 C4.28385417,15.4814321 4.28385417,15.5614854 4.36197917,15.6771181 C4.44010417,15.7927507 4.51388889,15.8238826 4.58333333,15.7705137 Z M5.13020833,16.3308873 C5.19965278,16.2597287 5.18229167,16.1752279 5.078125,16.0773849 C4.97395833,15.9706471 4.88715278,15.9573049 4.81770833,16.0373582 C4.73958333,16.1085168 4.75694444,16.1930176 4.86979167,16.2908606 C4.97395833,16.3975984 5.06076389,16.4109406 5.13020833,16.3308873 Z M5.87239583,16.664443 C5.8984375,16.5666 5.84201389,16.4954414 5.703125,16.4509673 C5.57291667,16.415388 5.49045139,16.4465199 5.45572917,16.5443629 C5.42100694,16.6422059 5.47743056,16.7089171 5.625,16.7444963 C5.75520833,16.7978652 5.83767361,16.7711808 5.87239583,16.664443 Z M6.69270833,16.7311541 C6.69270833,16.6155215 6.61892361,16.5666 6.47135417,16.5843896 C6.33246528,16.5843896 6.26302083,16.6333111 6.26302083,16.7311541 C6.26302083,16.8467867 6.33680556,16.8957082 6.484375,16.8779186 C6.62326389,16.8779186 6.69270833,16.8289971 6.69270833,16.7311541 Z M7.44791667,16.5977318 C7.43055556,16.4998888 7.35243056,16.4598621 7.21354167,16.4776518 C7.07465278,16.5043362 7.01388889,16.5710474 7.03125,16.6777852 C7.04861111,16.784523 7.12673611,16.8201023 7.265625,16.784523 C7.40451389,16.7489437 7.46527778,16.68668 7.44791667,16.5977318 Z" id="Shape"></path>
            </g>
        </g>
    </g>
</svg>

<svg width="20" height="20" xmlns="http://www.w3.org/2000/svg"><path d="M10 0c1.814 0 3.487.458 5.02 1.374a10.081 10.081 0 0 1 3.639 3.73C19.553 6.673 20 8.387 20 10.246c0 2.232-.636 4.24-1.908 6.024-1.271 1.783-2.914 3.017-4.928 3.702-.234.045-.408.014-.52-.093a.528.528 0 0 1-.17-.4l.006-1.021c.005-.654.007-1.252.007-1.795 0-.862-.226-1.494-.677-1.894.495-.054.94-.134 1.335-.24.394-.107.802-.28 1.223-.52a3.66 3.66 0 0 0 1.055-.888c.282-.351.512-.818.69-1.4.178-.583.267-1.253.267-2.009 0-1.058-.343-1.975-1.028-2.748.32-.81.286-1.717-.105-2.722-.243-.08-.594-.031-1.054.147a6.94 6.94 0 0 0-1.198.587l-.495.32A9.033 9.033 0 0 0 10 4.95c-.86 0-1.693.116-2.5.347a11.52 11.52 0 0 0-.553-.36c-.23-.143-.593-.314-1.088-.514-.494-.2-.863-.26-1.106-.18-.391 1.005-.426 1.912-.105 2.722-.685.773-1.028 1.69-1.028 2.748 0 .756.089 1.423.267 2.001.178.579.406 1.046.683 1.401a3.53 3.53 0 0 0 1.048.894c.421.24.83.414 1.224.52.395.107.84.187 1.335.24-.338.321-.551.78-.638 1.375a2.54 2.54 0 0 1-.586.2 3.599 3.599 0 0 1-.742.067c-.287 0-.57-.096-.853-.287-.282-.191-.523-.47-.723-.834a2.133 2.133 0 0 0-.631-.694c-.256-.177-.471-.284-.645-.32l-.26-.04c-.182 0-.308.02-.378.06-.07.04-.09.091-.065.154a.737.737 0 0 0 .117.186.961.961 0 0 0 .17.16l.09.067c.192.09.38.258.567.507.187.25.324.476.41.68l.13.308c.113.338.304.611.574.82.269.21.56.343.872.4.312.058.614.09.905.094.29.004.532-.011.723-.047l.299-.053c0 .338.002.731.007 1.18l.006.728c0 .16-.056.293-.17.4-.112.107-.286.138-.52.093-2.014-.685-3.657-1.919-4.928-3.702C.636 14.487 0 12.479 0 10.247c0-1.86.447-3.574 1.341-5.144a10.081 10.081 0 0 1 3.64-3.729A9.602 9.602 0 0 1 10 0zM3.79 14.716c.025-.062-.005-.115-.092-.16-.087-.026-.143-.017-.17.027-.025.062.005.116.092.16.078.054.134.045.17-.027zm.403.454c.06-.044.052-.116-.026-.213-.087-.08-.157-.094-.209-.04-.06.044-.052.115.026.213.087.089.157.102.209.04zm.39.6c.078-.062.078-.146 0-.253-.07-.116-.143-.142-.221-.08-.078.044-.078.124 0 .24.078.116.152.147.221.094zm.547.56c.07-.07.052-.155-.052-.253-.104-.106-.19-.12-.26-.04-.078.072-.061.156.052.254.104.107.19.12.26.04zm.742.334c.026-.097-.03-.169-.169-.213-.13-.036-.213-.004-.247.093-.035.098.021.165.169.2.13.054.213.027.247-.08zm.82.067c0-.115-.073-.164-.22-.147-.14 0-.209.05-.209.147 0 .116.074.165.221.147.14 0 .209-.049.209-.147zm.756-.133c-.017-.098-.096-.138-.234-.12-.14.026-.2.093-.183.2.018.107.096.142.235.107.139-.036.2-.098.182-.187z" fill="#000" fill-rule="nonzero"/></svg>
